GNOME++/actions/symbolic/curves-symbolic.svg

<svg xmlns="http://www.w3.org/2000/svg" width="16" height="16" shape-rendering="crispEdges" version="1.1">
 <g transform="translate(-31.97559,-220.36218)">
  <path d="m0.03125 0v16h16v-16h-16zm1 1h14v14h-14v-14z" transform="translate(31.97559,220.36218)" style="fill:#808080"/>
  <path d="m3.0253906 1v2h-2l-0.0019531 0.9941406 0.0039063 0.0117188h1.9980468v1.9941406h-1.9980468v1h1.9980468v2h-1.9980468v1h1.9980468v2h-1.9980468v1h1.9980468v2h1v-2h2v2h1v-2h2v2h1.0000004v-2h2v2h1v-2h2.001953v-1h-2.001953v-2h2.001953v-1h-2.001953v-2h2.001953v-1h-2.001953v-2h2v-1h-2v-2h-1v2h-2v-2h-1.0000004v2h-2v-2h-1v2h-2v-2h-1zm7.0000004 3.0019531h2v1.9980469h-2v-1.9980469zm-6.0000004 0.0019531h2v1.9960938h-2v-1.9960938zm3 0h2v1.9960938h-2v-1.9960938zm-3 2.9960938h2v2h-2v-2zm3 0h2v2h-2v-2zm3.0000004 0h2v2h-2v-2zm-6.0000004 3h2v2h-2v-2zm3 0h2v2h-2v-2zm3.0000004 0h2v2h-2v-2z" transform="translate(31.97559,220.36218)" style="fill-rule:evenodd;fill:#808080;opacity:.108"/>
  <path d="m45.982422 221.85547a0.50005 0.50005 0 0 0-0.47461 0.41992c-0.670445 3.76092-2.151193 6.28601-4.164062 8.07227s-4.58527 2.83704-7.460938 3.52929a0.50005 0.50005 0 1 0 0.234376 0.97071c2.967072-0.71426 5.707261-1.8144 7.890624-3.75196 2.183364-1.93756 3.78249-4.7092 4.484376-8.64648a0.50005 0.50005 0 0 0-0.509766-0.59375z" style="fill-rule:evenodd;fill:#808080"/>
 </g>
</svg>

<?xml version="1.0" encoding="UTF-8" standalone="no"?>
<!-- Created with Inkscape (http://www.inkscape.org/) -->

<svg
   xmlns:dc="http://purl.org/dc/elements/1.1/"
   xmlns:cc="http://creativecommons.org/ns#"
   xmlns:rdf="http://www.w3.org/1999/02/22-rdf-syntax-ns#"
   xmlns:svg="http://www.w3.org/2000/svg"
   xmlns="http://www.w3.org/2000/svg"
   xmlns:sodipodi="http://sodipodi.sourceforge.net/DTD/sodipodi-0.dtd"
   xmlns:inkscape="http://www.inkscape.org/namespaces/inkscape"
   width="16"
   height="16"
   id="svg2"
   version="1.1"
   inkscape:version="0.91+devel r13821 custom"
   sodipodi:docname="curves-symbolic.svg"
   shape-rendering="crispEdges">
  <defs
     id="defs4">
    <marker
       inkscape:stockid="DiamondS"
       orient="auto"
       refY="0.0"
       refX="0.0"
       id="DiamondS"
       style="overflow:visible">
      <path
         id="path8477"
         d="M 0,-7.0710768 L -7.0710894,0 L 0,7.0710589 L 7.0710462,0 L 0,-7.0710768 z "
         style="fill-rule:evenodd;stroke:#000000;stroke-width:1.0pt"
         transform="scale(0.2)" />
    </marker>
    <marker
       inkscape:stockid="Arrow2Send"
       orient="auto"
       refY="0.0"
       refX="0.0"
       id="Arrow2Send"
       style="overflow:visible;">
      <path
         id="path8425"
         style="fill-rule:evenodd;stroke-width:0.62500000;stroke-linejoin:round;"
         d="M 8.7185878,4.0337352 L -2.2072895,0.016013256 L 8.7185884,-4.0017078 C 6.9730900,-1.6296469 6.9831476,1.6157441 8.7185878,4.0337352 z "
         transform="scale(0.3) rotate(180) translate(-2.3,0)" />
    </marker>
    <marker
       inkscape:stockid="Arrow1Lend"
       orient="auto"
       refY="0.0"
       refX="0.0"
       id="Arrow1Lend"
       style="overflow:visible;">
      <path
         id="path8395"
         d="M 0.0,0.0 L 5.0,-5.0 L -12.5,0.0 L 5.0,5.0 L 0.0,0.0 z "
         style="fill-rule:evenodd;stroke:#000000;stroke-width:1.0pt;"
         transform="scale(0.8) rotate(180) translate(12.5,0)" />
    </marker>
    <linearGradient
       id="linearGradient3946">
      <stop
         id="stop3948"
         offset="0"
         style="stop-color:#000000;stop-opacity:0.74698794;" />
      <stop
         id="stop3950"
         offset="1"
         style="stop-color:#000000;stop-opacity:0.02409638;" />
    </linearGradient>
    <linearGradient
       id="linearGradient3830-9">
      <stop
         style="stop-color:#000000;stop-opacity:0.74698794;"
         offset="0"
         id="stop3832-7" />
      <stop
         style="stop-color:#000000;stop-opacity:0.02409638;"
         offset="1"
         id="stop3834-5" />
    </linearGradient>
    <linearGradient
       id="linearGradient3984">
      <stop
         style="stop-color:#f4deba;stop-opacity:1;"
         offset="0"
         id="stop3986" />
      <stop
         style="stop-color:#de9625;stop-opacity:0;"
         offset="1"
         id="stop3988" />
    </linearGradient>
  </defs>
  <sodipodi:namedview
     id="base"
     pagecolor="#555753"
     bordercolor="#666666"
     borderopacity="1.0"
     inkscape:pageopacity="1"
     inkscape:pageshadow="2"
     inkscape:zoom="16"
     inkscape:cx="0.081131996"
     inkscape:cy="13.122671"
     inkscape:document-units="px"
     inkscape:current-layer="layer1"
     showgrid="true"
     inkscape:snap-grids="true"
     inkscape:window-width="1680"
     inkscape:window-height="984"
     inkscape:window-x="0"
     inkscape:window-y="27"
     inkscape:window-maximized="1"
     showborder="false"
     fit-margin-top="0"
     fit-margin-right="0"
     fit-margin-left="0"
     fit-margin-bottom="0"
     showguides="false"
     inkscape:guide-bbox="true"
     borderlayer="false"
     inkscape:showpageshadow="true">
    <inkscape:grid
       type="xygrid"
       id="grid7044"
       empspacing="8"
       visible="true"
       enabled="true"
       snapvisiblegridlinesonly="false"
       originx="-31.97559px"
       originy="-816.00002px"
       dotted="false" />
  </sodipodi:namedview>
  <metadata
     id="metadata7">
    <rdf:RDF>
      <cc:Work
         rdf:about="">
        <dc:format>image/svg+xml</dc:format>
        <dc:type
           rdf:resource="http://purl.org/dc/dcmitype/StillImage" />
        <dc:title></dc:title>
      </cc:Work>
    </rdf:RDF>
  </metadata>
  <g
     inkscape:label="Livello 1"
     inkscape:groupmode="layer"
     id="layer1"
     transform="translate(-31.97559,-220.36218)">
    <path
       style="fill:#bebebe;fill-opacity:1;stroke:none"
       d="M 0.03125 0 L 0.03125 16 L 16.03125 16 L 16.03125 0 L 0.03125 0 z M 1.03125 1 L 15.03125 1 L 15.03125 15 L 1.03125 15 L 1.03125 1 z "
       id="path3789"
       transform="translate(31.97559,220.36218)" />
    <path
       style="opacity:0.108;fill:#bebebe;fill-opacity:1;fill-rule:evenodd;stroke:none;stroke-width:1px;stroke-linecap:butt;stroke-linejoin:miter;stroke-opacity:1"
       d="M 3.0253906 1 L 3.0253906 3 L 1.0253906 3 L 1.0234375 3.9941406 L 1.0273438 4.0058594 L 3.0253906 4.0058594 L 3.0253906 6 L 1.0273438 6 L 1.0273438 7 L 3.0253906 7 L 3.0253906 9 L 1.0273438 9 L 1.0273438 10 L 3.0253906 10 L 3.0253906 12 L 1.0273438 12 L 1.0273438 13 L 3.0253906 13 L 3.0253906 15 L 4.0253906 15 L 4.0253906 13 L 6.0253906 13 L 6.0253906 15 L 7.0253906 15 L 7.0253906 13 L 9.0253906 13 L 9.0253906 15 L 10.025391 15 L 10.025391 13 L 12.025391 13 L 12.025391 15 L 13.025391 15 L 13.025391 13 L 15.027344 13 L 15.027344 12 L 13.025391 12 L 13.025391 10 L 15.027344 10 L 15.027344 9 L 13.025391 9 L 13.025391 7 L 15.027344 7 L 15.027344 6 L 13.025391 6 L 13.025391 4 L 15.025391 4 L 15.025391 3 L 13.025391 3 L 13.025391 1 L 12.025391 1 L 12.025391 3 L 10.025391 3 L 10.025391 1 L 9.0253906 1 L 9.0253906 3 L 7.0253906 3 L 7.0253906 1 L 6.0253906 1 L 6.0253906 3 L 4.0253906 3 L 4.0253906 1 L 3.0253906 1 z M 10.025391 4.0019531 L 12.025391 4.0019531 L 12.025391 6 L 10.025391 6 L 10.025391 4.0019531 z M 4.0253906 4.0039062 L 6.0253906 4.0039062 L 6.0253906 6 L 4.0253906 6 L 4.0253906 4.0039062 z M 7.0253906 4.0039062 L 9.0253906 4.0039062 L 9.0253906 6 L 7.0253906 6 L 7.0253906 4.0039062 z M 4.0253906 7 L 6.0253906 7 L 6.0253906 9 L 4.0253906 9 L 4.0253906 7 z M 7.0253906 7 L 9.0253906 7 L 9.0253906 9 L 7.0253906 9 L 7.0253906 7 z M 10.025391 7 L 12.025391 7 L 12.025391 9 L 10.025391 9 L 10.025391 7 z M 4.0253906 10 L 6.0253906 10 L 6.0253906 12 L 4.0253906 12 L 4.0253906 10 z M 7.0253906 10 L 9.0253906 10 L 9.0253906 12 L 7.0253906 12 L 7.0253906 10 z M 10.025391 10 L 12.025391 10 L 12.025391 12 L 10.025391 12 L 10.025391 10 z "
       id="path5266"
       transform="translate(31.97559,220.36218)" />
    <path
       style="color:#000000;font-style:normal;font-variant:normal;font-weight:normal;font-stretch:normal;font-size:medium;line-height:normal;font-family:sans-serif;text-indent:0;text-align:start;text-decoration:none;text-decoration-line:none;text-decoration-style:solid;text-decoration-color:#000000;letter-spacing:normal;word-spacing:normal;text-transform:none;direction:ltr;block-progression:tb;writing-mode:lr-tb;baseline-shift:baseline;text-anchor:start;white-space:normal;clip-rule:nonzero;display:inline;overflow:visible;visibility:visible;opacity:1;isolation:auto;mix-blend-mode:normal;color-interpolation:sRGB;color-interpolation-filters:linearRGB;solid-color:#000000;solid-opacity:1;fill:#bebebe;fill-opacity:1;fill-rule:evenodd;stroke:none;stroke-width:1px;stroke-linecap:round;stroke-linejoin:miter;stroke-miterlimit:4;stroke-dasharray:none;stroke-dashoffset:0;stroke-opacity:1;color-rendering:auto;image-rendering:auto;shape-rendering:auto;text-rendering:auto;enable-background:accumulate"
       d="m 45.982422,221.85547 a 0.50005,0.50005 0 0 0 -0.47461,0.41992 c -0.670445,3.76092 -2.151193,6.28601 -4.164062,8.07227 -2.012869,1.78626 -4.58527,2.83704 -7.460938,3.52929 a 0.50005,0.50005 0 1 0 0.234376,0.97071 c 2.967072,-0.71426 5.707261,-1.8144 7.890624,-3.75196 2.183364,-1.93756 3.78249,-4.7092 4.484376,-8.64648 a 0.50005,0.50005 0 0 0 -0.509766,-0.59375 z"
       id="path5913"
       inkscape:connector-curvature="0" />
  </g>
</svg>
